packages/calcite-ui-icons/icons/raster-function-template-history-16.svg

<?xml version="1.0" encoding="UTF-8"?><svg id="icons" xmlns="http://www.w3.org/2000/svg" viewBox="0 0 16 16"><defs><style>.cls-1{fill:none;}.cls-1,.cls-2{stroke-width:0px;}</style></defs><rect class="cls-1" width="16" height="16"/><path class="cls-2" d="M2,9h2v2h-2v-2ZM4,6h-2v2h2v-2ZM4,3h-2v2h2v-2ZM14,5v-1h-2v-2h-1v3h3ZM1,12.09088V1.90906c0-.50208.37311-.90906.83331-.90906h5.81592c.25531-.36572.56689-.68439.90466-.97595-.07288-.01056-.14502-.02405-.22058-.02405H1.66669C.74707,0,0,.80621,0,1.79486v10.41028c0,.9903.74707,1.79486,1.66669,1.79486h5.13507l.13086-1H1.83331c-.46021,0-.83331-.40704-.83331-.90912ZM10.28455,8.78809c.19055,0,.36957.04199.53882.10596l.22101-.73914c-.14618-.08398-.40063-.12659-.61188-.12659-1.32898,0-1.86841.85474-2.03577,2.05768l-.15057.92682h-1.073l-.16418.98718h1.06342l-.52332,4h.82367l.52332-4h1.203l.1731-.98718h-1.20233l.11768-.74719c.12604-.85535.2417-1.47754,1.09705-1.47754ZM14.98816,11.01282l-1.50183,1.79102-1.06598-1.79102h-1.08789l1.46106,2.30243-2.41931,2.68475h1.03314l1.85431-2.15265,1.27911,2.15265h1.0976l-1.68445-2.68475,2.04608-2.30243h-1.01184ZM5,3v1h1.70001c0-.34241.03918-.67548.10223-1h-1.80225ZM7.10278,6h-2.10278v1h2.64923c-.21716-.3111-.39972-.64581-.54645-1ZM8.00897,4c0-2.20917,1.80786-4,4.04901-4s3.94202,1.79083,3.94202,4c0,2.18237-1.66241,3.94952-3.86346,3.99213l.09198-.30756-.68457-.39551c-.4082-.23535-.91309-.26074-1.11133-.26074-.25244,0-.55267.02771-.86493.1084-.94757-.73224-1.55872-1.85791-1.55872-3.13672ZM9,4c0,1.65411,1.34589,3,3,3s3-1.34589,3-3-1.34589-3-3-3-3,1.34589-3,3ZM5,10h2.39752l.01166-.07422c.04907-.35168.12915-.65271.22498-.92578h-2.63416v1Z"/></svg>

<svg xmlns="http://www.w3.org/2000/svg" viewBox="0 0 16 16"><path stroke-width="0" fill="none" d="M0 0h16v16H0z"/><path d="M2 9h2v2H2V9zm2-3H2v2h2V6zm0-3H2v2h2V3zm10 2V4h-2V2h-1v3h3zM1 12.09V1.91c0-.503.373-.91.833-.91H7.65c.256-.366.567-.684.905-.976C8.48.014 8.409 0 8.334 0H1.666C.747 0 0 .806 0 1.795v10.41C0 13.195.747 14 1.667 14h5.135l.13-1H1.834c-.46 0-.833-.407-.833-.91zm9.285-3.302c.19 0 .37.042.538.106l.221-.74c-.146-.083-.4-.126-.612-.126-1.328 0-1.868.855-2.035 2.058l-.15.927H7.172L7.01 12h1.063l-.523 4h.824l.523-4H10.1l.173-.987H9.07l.118-.747c.126-.856.241-1.478 1.097-1.478zm4.703 2.225l-1.502 1.79-1.066-1.79h-1.088l1.462 2.302L10.374 16h1.033l1.855-2.153L14.54 16h1.097l-1.684-2.685L16 11.013h-1.012zM5 3v1h1.7c0-.342.04-.675.102-1H5zm2.103 3H5v1h2.65a5.264 5.264 0 0 1-.547-1zm.906-2c0-2.21 1.808-4 4.049-4S16 1.79 16 4c0 2.182-1.662 3.95-3.863 3.992l.092-.307-.685-.396c-.408-.235-.913-.26-1.111-.26-.253 0-.553.027-.865.108A3.95 3.95 0 0 1 8.009 4zM9 4c0 1.654 1.346 3 3 3s3-1.346 3-3-1.346-3-3-3-3 1.346-3 3zm-4 6h2.398l.011-.074c.05-.352.13-.653.225-.926H5v1z" stroke-width="0"/></svg>
